packages/core/src/svgs/tokens/branded/RFOX.svg

<svg width="24" height="24" viewBox="0 0 24 24" fill="none" xmlns="http://www.w3.org/2000/svg">
<path fill-rule="evenodd" clip-rule="evenodd" d="M3.61279 10.1999V2L7.67731 6.19355L3.61279 10.1999ZM14.994 7.16129H9.01995L12.0638 19.9084L14.994 7.16129ZM8.167 7.19872L11.7734 22L4.24118 11.0439L8.167 7.19872ZM15.8328 7.19872L12.2264 22L19.7586 11.0439L15.8328 7.19872ZM20.3871 10.1999V2L16.3225 6.19355L20.3871 10.1999Z" fill="url(#paint0_linear_364_10196)"/>
<defs>
<linearGradient id="paint0_linear_364_10196" x1="3.74763" y1="10.6323" x2="20.0709" y2="10.6323" gradientUnits="userSpaceOnUse">
<stop stop-color="#AF0607"/>
<stop offset="0.495" stop-color="#ED1C24"/>
</linearGradient>
</defs>
</svg>

<svg xmlns="http://www.w3.org/2000/svg" width="24" height="24" fill="none" viewBox="0 0 24 24">
    <path fill="url(#RFOX__a)" fill-rule="evenodd" d="M3.613 10.2V2l4.064 4.194zm11.381-3.04H9.02l3.044 12.747zm-6.827.04L11.773 22 4.241 11.044zm7.666 0L12.226 22l7.533-10.956zm4.554 3V2l-4.064 4.194z" clip-rule="evenodd"/>
    <defs>
        <linearGradient id="RFOX__a" x1="3.748" x2="20.071" y1="10.632" y2="10.632" gradientUnits="userSpaceOnUse">
            <stop stop-color="#AF0607"/>
            <stop offset=".495" stop-color="#ED1C24"/>
        </linearGradient>
    </defs>
</svg>
